src/assets/svg/icons/fa/nuevos/classic/duotone/credit-card-blank classic duotone.svg

<svg xmlns="http://www.w3.org/2000/svg" viewBox="0 0 576 512"><!--! Font Awesome Pro 6.4.0 by @fontawesome - https://fontawesome.com License - https://fontawesome.com/license (Commercial License) Copyright 2023 Fonticons, Inc. --><defs><style>.fa-secondary{opacity:.4}</style></defs><path class="fa-primary" d="M64 32C28.7 32 0 60.7 0 96V416c0 35.3 28.7 64 64 64H512c35.3 0 64-28.7 64-64V96c0-35.3-28.7-64-64-64H64zM96 368c0-8.8 7.2-16 16-16h64c8.8 0 16 7.2 16 16s-7.2 16-16 16H112c-8.8 0-16-7.2-16-16zm128 0c0-8.8 7.2-16 16-16H368c8.8 0 16 7.2 16 16s-7.2 16-16 16H240c-8.8 0-16-7.2-16-16z"/><path class="fa-secondary" d="M112 352c-8.8 0-16 7.2-16 16s7.2 16 16 16h64c8.8 0 16-7.2 16-16s-7.2-16-16-16H112zm128 0c-8.8 0-16 7.2-16 16s7.2 16 16 16H368c8.8 0 16-7.2 16-16s-7.2-16-16-16H240z"/></svg>

<svg xmlns="http://www.w3.org/2000/svg" viewBox="0 0 576 512"><defs><style>.fa-secondary{opacity:.4}</style></defs><path class="fa-primary" d="M512 32C547.3 32 576 60.65 576 96V416C576 451.3 547.3 480 512 480H64C28.65 480 0 451.3 0 416V96C0 60.65 28.65 32 64 32H512zM112 384H176C184.8 384 192 376.8 192 368C192 359.2 184.8 352 176 352H112C103.2 352 96 359.2 96 368C96 376.8 103.2 384 112 384zM240 384H368C376.8 384 384 376.8 384 368C384 359.2 376.8 352 368 352H240C231.2 352 224 359.2 224 368C224 376.8 231.2 384 240 384z"/><path class="fa-secondary" d="M176 352C184.8 352 192 359.2 192 368C192 376.8 184.8 384 176 384H112C103.2 384 96 376.8 96 368C96 359.2 103.2 352 112 352H176zM368 352C376.8 352 384 359.2 384 368C384 376.8 376.8 384 368 384H240C231.2 384 224 376.8 224 368C224 359.2 231.2 352 240 352H368z"/></svg>
